assets/Wastebasket/Flat/wastebasket_flat.svg

<svg width="32" height="32" viewBox="0 0 32 32" fill="none" xmlns="http://www.w3.org/2000/svg">
<path d="M13.5197 2.30005L11.7297 3.24005L11.9098 3.58233L10.0076 7.20359L7.85976 3.12005L6.06976 4.06005L8.86614 9.37662L7.00927 12.9116L6.58223 12.0998L5.55977 3.61005L2.75977 3.94005L5.85977 29.69L8.65977 29.35L8.26687 26.0878L9.9613 22.8667L11.8655 26.4867L10.6697 28.76L12.4597 29.7001L13.1444 28.3973L14.7198 27.57L14.1492 26.4854L16.0064 22.9519L17.8653 26.4861L16.7698 28.57L18.5598 29.51L19.0077 28.6581L19.0298 28.7L20.8198 27.76L20.1496 26.4859L22.0528 22.8657L23.6866 25.9718L23.2798 29.35L26.0798 29.69L29.1798 3.94005L26.3798 3.61005L25.3362 12.2751L25.0038 12.9074L23.1433 9.37232L25.4097 5.06005L23.6297 4.12005L22.0049 7.20919L19.4898 2.43005L17.7098 3.37005L17.8213 3.58227L16.0077 7.02997L13.5197 2.30005ZM24.6574 17.9112L24.1122 22.4379L23.1947 20.6936L24.6574 17.9112ZM7.84129 22.554L7.26059 17.7324L8.8191 20.6953L7.84129 22.554ZM23.8628 15.0777L22.0523 18.5217L20.1928 14.9864L22.0038 11.5405L23.8628 15.0777ZM20.9104 20.6938L19.0072 24.314L17.1481 20.7794L19.051 17.1588L20.9104 20.6938ZM14.8655 20.7829L13.0076 24.3151L11.1036 20.6953L12.9616 17.1631L14.8655 20.7829ZM17.9113 14.9921L16.0077 18.6113L14.1039 14.9917L16.0076 11.3729L17.9113 14.9921ZM20.8657 9.37504L19.0535 12.8205L17.1499 9.20144L18.963 5.75466L20.8657 9.37504ZM8.14819 15.0768L10.0063 11.5442L11.8195 14.9916L9.96136 18.5238L8.14819 15.0768ZM11.1485 9.37266L13.052 5.75377L14.8654 9.2014L12.9618 12.8202L11.1485 9.37266Z" fill="#BEBEBE"/>
<path d="M4 6H28C29.1 6 30 5.1 30 4C30 2.9 29.1 2 28 2H4C2.9 2 2 2.9 2 4C2 5.1 2.9 6 4 6Z" fill="#9B9B9B"/>
<path d="M7 30H25C26.1 30 27 29.1 27 28C27 26.9 26.1 26 25 26H7C5.9 26 5 26.9 5 28C5 29.1 5.9 30 7 30Z" fill="#9B9B9B"/>
</svg>

<svg xmlns="http://www.w3.org/2000/svg" width="32" height="32" fill="none"><path fill="#BEBEBE" d="m13.52 2.3-1.79.94.18.342-1.902 3.622L7.86 3.12l-1.79.94 2.796 5.317-1.857 3.535-.427-.812L5.56 3.61l-2.8.33 3.1 25.75 2.8-.34-.393-3.262 1.694-3.221 1.905 3.62-1.196 2.273 1.79.94.684-1.303 1.576-.827-.57-1.085 1.856-3.533 1.86 3.534-1.096 2.084 1.79.94.448-.852.022.042 1.79-.94-.67-1.274 1.903-3.62 1.634 3.106-.407 3.378 2.8.34 3.1-25.75-2.8-.33-1.044 8.665-.332.632-1.86-3.535L25.41 5.06l-1.78-.94-1.625 3.09-2.515-4.78-1.78.94.111.212-1.813 3.448L13.52 2.3Zm11.137 15.611-.545 4.527-.917-1.744 1.462-2.783ZM7.841 22.554l-.58-4.822 1.558 2.963-.978 1.859Zm16.022-7.476-1.81 3.444-1.86-3.536 1.81-3.446 1.86 3.538Zm-2.953 5.616-1.903 3.62-1.859-3.535 1.903-3.62 1.86 3.535Zm-6.044.089-1.858 3.532-1.904-3.62 1.858-3.532 1.904 3.62Zm3.045-5.79-1.903 3.618-1.904-3.62 1.904-3.618 1.903 3.62Zm2.955-5.618-1.813 3.445-1.903-3.619 1.813-3.446 1.903 3.62ZM8.148 15.077l1.858-3.533 1.813 3.448-1.858 3.532-1.813-3.447Zm3-5.704 1.904-3.62 1.813 3.448-1.903 3.62-1.813-3.448Z"/><path fill="#9B9B9B" d="M4 6h24c1.1 0 2-.9 2-2s-.9-2-2-2H4c-1.1 0-2 .9-2 2s.9 2 2 2ZM7 30h18c1.1 0 2-.9 2-2s-.9-2-2-2H7c-1.1 0-2 .9-2 2s.9 2 2 2Z"/></svg>
